dist/img/profile320.svg

<svg width="30" height="30" viewBox="0 0 30 30" fill="none" xmlns="http://www.w3.org/2000/svg">
<path d="M15 15C17.7625 15 20 12.7625 20 10C20 7.2375 17.7625 5 15 5C12.2375 5 10 7.2375 10 10C10 12.7625 12.2375 15 15 15ZM15 17.5C11.6625 17.5 5 19.175 5 22.5V25H25V22.5C25 19.175 18.3375 17.5 15 17.5Z" fill="#2D2D2D"/>
</svg>

<svg width="30" height="30" fill="none" xmlns="http://www.w3.org/2000/svg"><path d="M15 15c2.762 0 5-2.238 5-5 0-2.763-2.238-5-5-5s-5 2.237-5 5c0 2.762 2.238 5 5 5Zm0 2.5c-3.338 0-10 1.675-10 5V25h20v-2.5c0-3.325-6.663-5-10-5Z" fill="#2D2D2D"/></svg>
